X:91
C:Page 45
T:Italian Monfrina. MBe.91, The
S:Matthew Betham MS, Towcett Cumbria, 1815
O:England;Cumbria;Towcett
Z:VMP – Hugh Taylor, 2012
M:6/8
L:1/8
Q:3/8=100
R:.Jig
N:No time signature, 6/8 assumed.
C:in margin “Matthew Betham Towcet”
K:G
“Cr”D|GAB BcA|AGG G2 d|dFF FGA|ABG G2 D|
GAB BcA|AGG G2 G|FDF FGA|AGG G2:|
|:”Cr”g|gfg afd|cBc d2 g|gfg afd|cBc d2 g|
gfg gfg|ece efg|ded cBA|AGG G2:|

